site/img/pay-visa.svg

<svg height="26" width="44" xmlns="http://www.w3.org/2000/svg" viewBox="0 0 44 26"><path fill="#fff" fill-rule="evenodd" d="M0 4.66c0-2.21 1.8-4 4-4h35.1c2.21 0 3.99 1.79 3.99 4v16.64c0 2.2-1.79 3.99-3.99 3.99h-35.1c-2.21 0-4-1.79-4-3.99v-16.64zm0 0"/><path fill="#26337a" fill-rule="evenodd" d="M17.88 16.9l1.32-7.83h2.12l-1.32 7.83h-2.12M27.68 9.26c-.42-.16-1.08-.33-1.9-.33-2.09 0-3.57 1.06-3.58 2.58-.01 1.13 1.05 1.76 1.86 2.13.82.39 1.1.63 1.1.97-.01.53-.66.77-1.27.77-.85 0-1.3-.12-2-.41l-.27-.13-.29 1.76c.49.21 1.4.4 2.35.41 2.23 0 3.68-1.05 3.69-2.67.01-.89-.55-1.57-1.78-2.13-.74-.36-1.19-.6-1.18-.97 0-.33.38-.67 1.21-.67.69-.01 1.19.14 1.58.3l.19.09.29-1.7M30.5 14.12c.18-.45.84-2.19.84-2.19l.29-.74.14.67s.41 1.87.49 2.26h-1.76zm2.61-5.05h-1.63c-.51 0-.89.14-1.11.65l-3.15 7.18h2.23l.44-1.18 2.71.01c.07.27.26 1.17.26 1.17h1.97l-1.72-7.83zm0 0M16.1 9.07l-2.07 5.34-.22-1.08c-.39-1.25-1.59-2.61-2.94-3.29l1.9 6.85h2.24l3.34-7.82h-2.25"/><path fill="#ec982d" fill-rule="evenodd" d="M12.11 9.07h-3.42l-.03.16c2.66.65 4.42 2.21 5.15 4.1l-.74-3.6c-.13-.5-.5-.64-.96-.66"/></svg>

<?xml version="1.0" encoding="utf-8"?>
<!-- Generator: Avocode 2.4.3-3630f5a - http://avocode.com -->
<svg height="26" width="44" xmlns:xlink="http://www.w3.org/1999/xlink" xmlns="http://www.w3.org/2000/svg" viewBox="0 0 44 26">
    <path fill="#ffffff" fill-rule="evenodd" d="M 0 4.66 C 0 2.45 1.8 0.66 4 0.66 L 39.1 0.66 C 41.31 0.66 43.09 2.45 43.09 4.66 L 43.09 21.3 C 43.09 23.5 41.3 25.29 39.1 25.29 L 4 25.29 C 1.79 25.29 0 23.5 0 21.3 L 0 4.66 Z M 0 4.66" />
    <path fill="#26337a" fill-rule="evenodd" d="M 17.88 16.9 L 19.2 9.07 L 21.32 9.07 L 20 16.9 L 17.88 16.9" />
    <path fill="#26337a" fill-rule="evenodd" d="M 27.68 9.26 C 27.26 9.1 26.6 8.93 25.78 8.93 C 23.69 8.93 22.21 9.99 22.2 11.51 C 22.19 12.64 23.25 13.27 24.06 13.64 C 24.88 14.03 25.16 14.27 25.16 14.61 C 25.15 15.14 24.5 15.38 23.89 15.38 C 23.04 15.38 22.59 15.26 21.89 14.97 L 21.62 14.84 L 21.33 16.6 C 21.82 16.81 22.73 17 23.68 17.01 C 25.91 17.01 27.36 15.96 27.37 14.34 C 27.38 13.45 26.82 12.77 25.59 12.21 C 24.85 11.85 24.4 11.61 24.41 11.24 C 24.41 10.91 24.79 10.57 25.62 10.57 C 26.31 10.56 26.81 10.71 27.2 10.87 L 27.39 10.96 L 27.68 9.26" />
    <path fill="#26337a" fill-rule="evenodd" d="M 30.5 14.12 C 30.68 13.67 31.34 11.93 31.34 11.93 C 31.33 11.95 31.52 11.48 31.63 11.19 L 31.77 11.86 C 31.77 11.86 32.18 13.73 32.26 14.12 L 30.5 14.12 L 30.5 14.12 Z M 33.11 9.07 L 31.48 9.07 C 30.97 9.07 30.59 9.21 30.37 9.72 L 27.22 16.9 L 29.45 16.9 C 29.45 16.9 29.81 15.93 29.89 15.72 C 30.13 15.72 32.3 15.73 32.6 15.73 C 32.67 16 32.86 16.9 32.86 16.9 L 34.83 16.9 L 33.11 9.07 L 33.11 9.07 Z M 33.11 9.07" />
    <path fill="#26337a" fill-rule="evenodd" d="M 16.1 9.07 L 14.03 14.41 L 13.81 13.33 C 13.42 12.08 12.22 10.72 10.87 10.04 L 12.77 16.89 L 15.01 16.89 L 18.35 9.07 L 16.1 9.07" />
    <path fill="#ec982d" fill-rule="evenodd" d="M 12.11 9.07 L 8.69 9.07 L 8.66 9.23 C 11.32 9.88 13.08 11.44 13.81 13.33 L 13.07 9.73 C 12.94 9.23 12.57 9.09 12.11 9.07" />
</svg>
